resources/refresh.svg

<svg xmlns="http://www.w3.org/2000/svg" width="24" height="24" fill="#f4f4f7" viewBox="0 0 24 24"><path stroke="#555e70" stroke-linecap="round" stroke-linejoin="round" stroke-width="2" d="M4 4V9H4.58152M19.9381 11C19.446 7.05369 16.0796 4 12 4C8.64262 4 5.76829 6.06817 4.58152 9M4.58152 9H9M20 20V15H19.4185M19.4185 15C18.2317 17.9318 15.3574 20 12 20C7.92038 20 4.55399 16.9463 4.06189 13M19.4185 15H15"/></svg>

<svg width="24" height="24" fill="#f4f4f7">
  <path stroke="#555e70" stroke-linecap="round" stroke-linejoin="round" stroke-width="2" d="M4 4v5h.582m15.356 2A8.001 8.001 0 0 0 4.582 9m0 0H9m11 11v-5h-.581m0 0a8.003 8.003 0 0 1-15.357-2m15.357 2H15"/>
</svg>
